assets/svg/1f1ed-1f1f3.svg

<svg xmlns="http://www.w3.org/2000/svg" viewBox="0 0 64 64" enable-background="new 0 0 64 64"><g fill="#42ade2"><path d="m32 62c13.06 0 24.17-8.35 28.29-20h-56.57c4.119 11.65 15.224 20 28.29 20"/><path d="M32,2C18.939,2,7.834,10.349,3.715,22h56.572C56.168,10.349,45.062,2,32,2z"/></g><path fill="#f9f9f9" d="m60.29 42c1.106-3.129 1.713-6.492 1.713-10 0-3.508-.607-6.871-1.713-10h-56.57c-1.107 3.128-1.715 6.492-1.715 10 0 3.508.608 6.872 1.715 10h56.57"/><g fill="#42ade2"><path d="m32 33.592l1.854 1.408-.704-2.29 1.85-1.42-2.286-.01-.714-2.28-.71 2.28-2.29.01 1.847 1.42-.697 2.29z"/><path d="m22 28.592l1.854 1.408-.704-2.29 1.85-1.418-2.286-.012-.714-2.28-.713 2.28-2.287.012 1.847 1.418-.697 2.29z"/><path d="m42 28.592l1.854 1.408-.704-2.29 1.85-1.418-2.286-.012-.714-2.28-.71 2.28-2.29.012 1.847 1.418-.697 2.29z"/><path d="m22 38.592l1.854 1.408-.704-2.289 1.85-1.421-2.286-.01-.714-2.28-.713 2.28-2.287.01 1.847 1.421-.697 2.289z"/><path d="m42 38.592l1.854 1.408-.704-2.289 1.85-1.421-2.286-.01-.714-2.28-.71 2.28-2.29.01 1.847 1.421-.697 2.289z"/></g></svg>

<svg xmlns="http://www.w3.org/2000/svg" width="64" height="64" viewBox="0 0 64 64"><path fill="#42ADE2" d="M32 62c13.062 0 24.168-8.35 28.287-20H3.715C7.834 53.65 18.939 62 32 62zM32 2C18.939 2 7.834 10.349 3.715 22h56.572C56.168 10.349 45.062 2 32 2z"/><path fill="#F9F9F9" d="M60.287 42A29.94 29.94 0 0 0 62 32a29.94 29.94 0 0 0-1.713-10H3.715A29.912 29.912 0 0 0 2 32c0 3.508.608 6.872 1.715 10h56.572z"/><path fill="#42ADE2" d="M32 33.592L33.854 35l-.7-2.29L35 31.292l-2.286-.008L32 29l-.713 2.284-2.287.008 1.847 1.418-.701 2.29zM22 28.592L23.854 30l-.7-2.29L25 26.292l-2.286-.008L22 24l-.713 2.284-2.287.008 1.847 1.418-.701 2.29zM42 28.592L43.854 30l-.7-2.29L45 26.292l-2.286-.008L42 24l-.713 2.284-2.287.008 1.847 1.418-.701 2.29zM22 38.592L23.854 40l-.7-2.289L25 36.291l-2.286-.008L22 34l-.713 2.283-2.287.008 1.847 1.42L20.146 40zM42 38.592L43.854 40l-.7-2.289L45 36.291l-2.286-.008L42 34l-.713 2.283-2.287.008 1.847 1.42L40.146 40z"/></svg>
